!!!OTL: Graf und Nonne (Die Nonne) Skjon jomfru gjekk pa hogan fjell,
!!!ARE: Nordeuropa, Norwegen
!!!YOR: 8, S. 285
!!    1984 gedruckt in Molde
!!!SCT: Q2155z
!!!YEM: Copyright 1995, estate of Helmut Schaffrath.
**kern
*ICvox
*Ivox
*M4/4
*k[b-e-]
*g:
{8g
8b-
=1
4dd
4dd
4cc
8cc
8dd
=2
4b-
8b-
8a
4g}
{8g
8b-
=3
4dd
8dd
8dd
8cc
8b-
4cc
=4
2dd
4r}
{4ee-
=5
4ffn
8ffn
8dd
4ee-
8ee-
8dd
=6
8dd
8cc
4cc
4.cc}
{8dd
=7
4b-
4a
4.g}
{8g
=8
4.a
8g
4f#
4f#
=9
2g
4r}
==
!!!AGN: Ballade, Standesunterschied, vergebliche Werbung, Liebe, Klage
!! Norwegische Fassung der Ballade.
!!!ONB: ESAC (Essen Associative Code) Database: BALLADE
!!!AMT: simple quadruple
!!!AIN: vox
!!!EED: Helmut Schaffrath
!!!EEV: 1.0
*-
